X: 56
T:Jack Pudding
M:6/8
L:1/8
Q:110
R:Jig
K:GAeol
D|G2G A2F|BG2 c2A|dB2 A2G|G3-G2||
g|fd2 e2c|dB3 c2A|BG2 AF2|B3-B2 B|cA2 d2A|^FD2 B2c|dB2 cA2|G3-G2||

